src/images/testimonials/facebook.svg

<svg version="1.1" xmlns="http://www.w3.org/2000/svg" xmlns:xlink="http://www.w3.org/1999/xlink" width="15" height="25" viewBox="0,0,153.60001,256"><g fill="none" fill-rule="nonzero" stroke="none" stroke-width="none" stroke-linecap="butt" stroke-linejoin="miter" stroke-miterlimit="10" stroke-dasharray="none" stroke-dashoffset="0" font-family="none" font-weight="none" font-size="none" text-anchor="none" style="mix-blend-mode: normal"><g transform="translate(0,0) scale(1,1)"><g transform="translate(-6.144,-10.24) scale(1.08,1.08)"><g><g><g transform="translate(6.144,10.24) scale(0.92,0.92)"><g fill="#ffffff" stroke="none" stroke-width="1" stroke-dasharray=""><g transform="translate(-0.0001,0)"><g><g transform="translate(1.7065,-5.08051) scale(10.24,10.24)"><path d="M14.6667,1.66674c0,-0.17681 -0.0703,-0.34638 -0.1953,-0.47141c-0.125,-0.12502 -0.2946,-0.19526 -0.4714,-0.19526h-3.3333c-1.67854,-0.08361 -3.3219,0.50052 -4.57107,1.62477c-1.24917,1.12426 -2.00258,2.69723 -2.09563,4.37523v3.60003h-3.33333c-0.17681,0 -0.34638,0.0702 -0.4714,0.1952c-0.12502,0.1251 -0.19526,0.2946 -0.19526,0.4714v3.4667c0,0.1768 0.07024,0.3464 0.19526,0.4714c0.12503,0.125 0.29459,0.1953 0.47141,0.1953h3.33333v8.9333c0,0.1768 0.07024,0.3464 0.19526,0.4714c0.12503,0.125 0.2946,0.1953 0.47141,0.1953h4c0.17681,0 0.34638,-0.0703 0.4714,-0.1953c0.12503,-0.125 0.19526,-0.2946 0.19526,-0.4714v-8.9333h3.49337c0.1482,0.0021 0.293,-0.0453 0.4113,-0.1346c0.1183,-0.0893 0.2035,-0.2156 0.242,-0.3588l0.96,-3.4666c0.0265,-0.0985 0.0301,-0.2018 0.0104,-0.3019c-0.0196,-0.1001 -0.062,-0.1944 -0.1239,-0.2755c-0.0618,-0.0811 -0.1414,-0.147 -0.2327,-0.1926c-0.0913,-0.0455 -0.1918,-0.0695 -0.2938,-0.07h-4.46667v-3.60003c0.03317,-0.33003 0.18816,-0.63585 0.4347,-0.85774c0.24657,-0.22189 0.56697,-0.34392 0.89867,-0.34226h3.3333c0.1768,0 0.3464,-0.07024 0.4714,-0.19526c0.125,-0.12503 0.1953,-0.29459 0.1953,-0.47141z"></path></g></g></g></g><g fill="none" stroke="#5dd3c8" stroke-width="1.16" stroke-dasharray="9.28,9.28" font-family="none" font-weight="none" font-size="NaN" text-anchor="start"></g></g></g></g></g></g></g></svg>

<svg width="15" height="25" viewBox="0 0 15 25" fill="none" xmlns="http://www.w3.org/2000/svg">
<path d="M14.6667 1.66674C14.6667 1.48993 14.5964 1.32036 14.4714 1.19533C14.3464 1.07031 14.1768 1.00007 14 1.00007H10.6667C8.98816 0.916459 7.3448 1.50059 6.09563 2.62484C4.84646 3.7491 4.09305 5.32207 4 7.00007V10.6001H0.666667C0.489856 10.6001 0.320287 10.6703 0.195262 10.7953C0.070238 10.9204 0 11.0899 0 11.2667V14.7334C0 14.9102 0.070238 15.0798 0.195262 15.2048C0.320287 15.3298 0.489856 15.4001 0.666667 15.4001H4V24.3334C4 24.5102 4.07024 24.6798 4.19526 24.8048C4.32029 24.9298 4.48986 25.0001 4.66667 25.0001H8.66667C8.84348 25.0001 9.01305 24.9298 9.13807 24.8048C9.2631 24.6798 9.33333 24.5102 9.33333 24.3334V15.4001H12.8267C12.9749 15.4022 13.1197 15.3548 13.238 15.2655C13.3563 15.1762 13.4415 15.0499 13.48 14.9067L14.44 11.4401C14.4665 11.3416 14.4701 11.2383 14.4504 11.1382C14.4308 11.0381 14.3884 10.9438 14.3265 10.8627C14.2647 10.7816 14.1851 10.7157 14.0938 10.6701C14.0025 10.6246 13.902 10.6006 13.8 10.6001H9.33333V7.00007C9.3665 6.67004 9.52149 6.36422 9.76803 6.14233C10.0146 5.92044 10.335 5.79841 10.6667 5.80007H14C14.1768 5.80007 14.3464 5.72983 14.4714 5.60481C14.5964 5.47978 14.6667 5.31022 14.6667 5.1334V1.66674Z" fill="white"/>
</svg>
